!!!OTL: NUR NOCH EINMAL IN MEINEM GANZEN LEBEN
!!!ARE: Europa, Mitteleuropa, Deutschland, Rheinland, Allenbach
!!!SCT: B0263
!!!YEM: Copyright 1995, estate of Helmut Schaffrath.
**kern
*ICvox
*Ivox
*M4/4
*k[f#c#]
*D:
{8d
8f#
=1
4a
8a
8a
8a
8a
8b
8a
=2
4f#
4f#
4r}
{8e
8f#
=3
4g
4g
8f#
8f#
8a
8f#
=4
2e
4r}
{8d
8f#
=5
4a
4a
8a
8a
8b
8a
=6
4f#
4f#
8r}
{8dd
8dd
8dd
=7
4.cc#
8cc#
4b
8.b
16c#
=8
2a
4r}
{8a
8g
=9
4.f#
8f#
8f#
8f#
8b
8a
=10
4a
4g
4r}
{8g
8f#
=11
4e
4a
8a
8g
8b
8a
=12
2f#
4r}
{8d
8d
=13
4d
4d
8d
8dd
8dd
8cc#
=14
8cc#
8b
4b
4r}
{4b
=15
8g
8f#
8e
8b
8a
8a
8g
8a
=16
4f#
4g
4a}
{4b
=17
8g
8f#
8e
8b
8b
8a
8g
8a
=18
2f#
4r}
==
!!!AGN: Stimmungs - Lied, Sehnsucht, Trauer (um die Eltern)
!!!ONB: ESAC (Essen Associative Code) Database: BOEHME
!!!AMT: simple quadruple
!!!AIN: vox
!!!EED: Helmut Schaffrath
!!!EEV: 1.0
*-
